Adwaita++-Dark/actions/22/online-banking.svg

<svg height="22" width="22" xmlns="http://www.w3.org/2000/svg">
  <g fill="#e6ddff">
    <path d="m11.007812 3c-.166308.00989-.331632.1128756-.599609.2734375l-2.908203 1.7421875-2.8984375 1.7363281c-.638198.358215-.5518475.1965221-.6015625.8828125v1.2578125c0 .059578.0380375.1074219.0859375.1074219h.9140625v.4277344 7.1445316.427734h-.2324219c-.424987 0-.7675781.378053-.7675781.847656v1.152344h9.541016a4 4 0 0 1 -.541016-2 4 4 0 0 1 .132812-1h-1.132812v-6h3v3.541016a4 4 0 0 1 2-.541016v-3.5722656-.4277344h.914062c.0479 0 .085938-.047844.085938-.1074219v-1.2304687c-.0014-.7238546-.01687-.5594669-.625-.9238282l-2.875-1.7226562-2.892578-1.7324219c-.267663-.2096236-.4333-.2930885-.59961-.2832031zm-4.007812 7h3v6h-3z"/>
    <path d="m17 14c-1.656857 0-3 1.343143-3 3s1.343143 3 3 3 3-1.343143 3-3-1.343143-3-3-3zm-.214286.830357c.02867-.003.06482.0017.09375 0 .0034.01371-.02087.06252-.05357.133929-.208226.454885-.220037.987578-.02679 1.272321.03497.05163.06696.100757.06696.107143 0 .0064-.03771.01339-.08036.01339-.100105 0-.194837-.06102-.388393-.214286-.08598-.06809-.197764-.125271-.241071-.133928-.06801-.01359-.08613-.0076-.174107.08036-.08185.08184-.107143.12597-.107143.200893 0 .284117.33732.509957.964286.642857.851443.180458 1.061335.342458 1.084821.790178.02949.561429-.269421.984772-.924107 1.3125-.07814.03913-.127929.05432-.160714.06696-.01453-.0013-.02569.0013-.04018 0-.0056-.01736-.01339-.05763-.01339-.133928 0-.298192-.117535-.605143-.294643-.776786-.04754-.04608-.180651-.143721-.294642-.214286-.113988-.07056-.228836-.152528-.254465-.1875-.04247-.05803-.04602-.09369-.01339-.200893.05947-.195801.130252-.304855.267858-.428571.07214-.06486.144732-.11925.160714-.120536.01599-.0013-.09221-.03377-.254464-.06696-.162249-.03326-.399609-.102908-.522322-.147321-.224391-.08119-.527357-.25164-.642857-.375-.0049-.0052-.0091-.0088-.01339-.01339.165484-.659186.629893-1.199464 1.245536-1.459822.128816-.05448.261608-.09186.401786-.120535.06982-.01427.142191-.01946.214285-.02679zm2.008929 1.004465c.05034.03111.24039.442285.294643.642857.07005.258938.06498.707057 0 .964285-.02473.0979-.05642.189493-.06696.200893s-.04878-.05423-.09375-.133928c-.04498-.07969-.18864-.249022-.308035-.375-.344632-.363656-.398825-.553522-.254465-.84375.0728-.146353.389615-.4794.428572-.455357z"/>
  </g>
</svg>

<svg xmlns="http://www.w3.org/2000/svg" width="22" height="22" version="1.1">
 <defs>
  <style id="current-color-scheme" type="text/css">
   .ColorScheme-Text { color:#E6DDFF; } .ColorScheme-Highlight { color:#4285f4; }
  </style>
 </defs>
 <path style="fill:currentColor" class="ColorScheme-Text" d="M 11.007812 3 C 10.841504 3.00989 10.67618 3.1128756 10.408203 3.2734375 L 7.5 5.015625 L 4.6015625 6.7519531 C 3.9633645 7.1101681 4.049715 6.9484752 4 7.6347656 L 4 8.8925781 C 4 8.9521561 4.0380375 9 4.0859375 9 L 5 9 L 5 9.4277344 L 5 16.572266 L 5 17 L 4.7675781 17 C 4.3425911 17 4 17.378053 4 17.847656 L 4 19 L 13.541016 19 A 4 4 0 0 1 13 17 A 4 4 0 0 1 13.132812 16 L 12 16 L 12 10 L 15 10 L 15 13.541016 A 4 4 0 0 1 17 13 L 17 9.4277344 L 17 9 L 17.914062 9 C 17.961962 9 18 8.952156 18 8.8925781 L 18 7.6621094 C 17.9986 6.9382548 17.98313 7.1026425 17.375 6.7382812 L 14.5 5.015625 L 11.607422 3.2832031 C 11.339759 3.0735795 11.174122 2.9901146 11.007812 3 z M 7 10 L 10 10 L 10 16 L 7 16 L 7 10 z"/>
 <path style="fill:currentColor" class="ColorScheme-Text" d="m 17,14 c -1.656857,0 -3,1.343143 -3,3 0,1.656857 1.343143,3 3,3 1.656857,0 3,-1.343143 3,-3 0,-1.656857 -1.343143,-3 -3,-3 z m -0.214286,0.830357 c 0.02867,-0.003 0.06482,0.0017 0.09375,0 0.0034,0.01371 -0.02087,0.06252 -0.05357,0.133929 -0.208226,0.454885 -0.220037,0.987578 -0.02679,1.272321 0.03497,0.05163 0.06696,0.100757 0.06696,0.107143 0,0.0064 -0.03771,0.01339 -0.08036,0.01339 -0.100105,0 -0.194837,-0.06102 -0.388393,-0.214286 -0.08598,-0.06809 -0.197764,-0.125271 -0.241071,-0.133928 -0.06801,-0.01359 -0.08613,-0.0076 -0.174107,0.08036 -0.08185,0.08184 -0.107143,0.12597 -0.107143,0.200893 0,0.284117 0.33732,0.509957 0.964286,0.642857 0.851443,0.180458 1.061335,0.342458 1.084821,0.790178 0.02949,0.561429 -0.269421,0.984772 -0.924107,1.3125 -0.07814,0.03913 -0.127929,0.05432 -0.160714,0.06696 -0.01453,-0.0013 -0.02569,0.0013 -0.04018,0 -0.0056,-0.01736 -0.01339,-0.05763 -0.01339,-0.133928 0,-0.298192 -0.117535,-0.605143 -0.294643,-0.776786 -0.04754,-0.04608 -0.180651,-0.143721 -0.294642,-0.214286 -0.113988,-0.07056 -0.228836,-0.152528 -0.254465,-0.1875 -0.04247,-0.05803 -0.04602,-0.09369 -0.01339,-0.200893 0.05947,-0.195801 0.130252,-0.304855 0.267858,-0.428571 0.07214,-0.06486 0.144732,-0.11925 0.160714,-0.120536 0.01599,-0.0013 -0.09221,-0.03377 -0.254464,-0.06696 -0.162249,-0.03326 -0.399609,-0.102908 -0.522322,-0.147321 -0.224391,-0.08119 -0.527357,-0.25164 -0.642857,-0.375 -0.0049,-0.0052 -0.0091,-0.0088 -0.01339,-0.01339 0.165484,-0.659186 0.629893,-1.199464 1.245536,-1.459822 0.128816,-0.05448 0.261608,-0.09186 0.401786,-0.120535 0.06982,-0.01427 0.142191,-0.01946 0.214285,-0.02679 z m 2.008929,1.004465 c 0.05034,0.03111 0.24039,0.442285 0.294643,0.642857 0.07005,0.258938 0.06498,0.707057 0,0.964285 -0.02473,0.0979 -0.05642,0.189493 -0.06696,0.200893 -0.01054,0.0114 -0.04878,-0.05423 -0.09375,-0.133928 -0.04498,-0.07969 -0.18864,-0.249022 -0.308035,-0.375 -0.344632,-0.363656 -0.398825,-0.553522 -0.254465,-0.84375 0.0728,-0.146353 0.389615,-0.4794 0.428572,-0.455357 z"/>
</svg>
